X:1
T:Title
%%score 1 { ( 2 4 7 ) | ( 3 5 6 ) }
L:1/8
Q:1/4=100
M:4/4
K:Eb
V:1 treble nm="Akkordion"
V:2 treble nm="Grand Piano"
V:4 treble 
V:7 treble 
V:3 bass 
V:5 bass 
V:6 bass 
V:1
 B2 B2 B2 B2 | B3 A G2 F2 | E2 E2 F2 G2 | B3 A G2 F2 | G2 G2 G2 c2 | B2 =A2 G4 | B2 B2 B2 B2 | %7
w: Fred.~Schilling * * *|||||||
 B2 cd e2 B2 | B2 B2 B2 B2 | B2 cd e2 B2 | e2 B2 c2 G2 | B2 E2 G4 | F2 G2 A2 =A2 | B2 c2 d4 | %14
w: |||||||
 e2 d2 c2 G2 | B4 B2 B2 | B2 A>G F2 G2 | E6 z2 | E2 c2 c2 e2 | e4 B2 B2 | B2 =A>G A2 c2 | B6 z2 | %22
w: ||||||||
 e2 d2 c2 G2 | B4 B2 B2 | B2 A>G F2 G2 | E6 z2 | A2 GF B2 AG | c2 d2 e2 EF | G2 BA G2 F2 | E6 z2 |] %30
w: ||||||||
V:2
 [B,EGB]2 [B,EGB]2 [B,EGB]2 [B,EGB]2 | [DFB]3 [FA] [B,DG]2 [DF]2 | [G,E]2 [G,DE]2 [CEF]2 [C=EG]2 | %3
 [CFB]3 [FA] [EG]2 F2 | [B,EG]2 [=B,FG]2 [CEG]2 [E_Gc]2 | [GB]2 [_G=A]-[CGA] [B,=G]4 | %6
 [B,DB]2 [B,FB]2 [B,EB]2 [B,GB]2 | [FAB]2 .[Ac]2 [Ge]2 [EB]2 | [B,DB]2 [B,FB]2 [B,EB]2 [B,GB]2 | %9
 [FAB]2 .[Ac]2 [Ge]2 [GB]2 | [EGe]2 [EB]2 [CEc]2 [EG]2 | [DB]2 [G,E]2 [=B,G]4 | %12
 [CF]2 [C=EG]2 [CFA]2 [CF=A]2 | [DFB]2 [FAc]2 [FBd]4 | [GBe]2 [EGd]2 [Gc]2 [EG]2 | B6 z2 | %16
 B2 [DA]2 [B,DF]2 [DG]2 | E8 | [CE]2 [EAc]2 [EAc]2 [EAe]2 | [EBe]4 z4 | B2 =A>G A2 c2 | B6 z2 | %22
 [EGBe]2 [EGd]2 [Gc]2 [EG]2 | B6 z2 | B2 [DA]2 [B,DF]2 [G,DG]2 | E8 | [A,CA]2 D-[A,DF] [EB]2 AG | %27
 [CEc]2 d2 e2 EF | [B,G]2 [_D=EB][CFA] [B,_EG]2 [A,=DF]2 | E6 z2 |] %30
V:3
 E,2 B,,2 E,2 G,2 | z2 z D z2 A,2 | C,2 B,,2 A,,2 G,,2 | F,,2 z C z2 D2 | E,2 D,2 C,2 =A,,2 | %5
 [D,D]2 [D,,D,]2 [G,,D,]4 | F,2 A,2 G,2 E,2 | D,2 z[K:treble] d[K:bass] E,2 G,2 | F,2 A,2 G,2 E,2 | %9
 D,2 z[K:treble] d[K:bass] E,2 E,2 | [C,G,C]2 [E,G,]2 [A,,E,A,]2 [E,G,B,]2 | %11
 [B,,F,B,]2 [C,E,]2 [G,,D,]4 | [A,,A,]2 [G,,G,]2 [F,,F,]2 [E,,E,]2 | %13
 [D,,D,]2 [C,,C,]2 B,,A,,G,,F,, | E,,2 B,,2 [E,G,E]2 B,,2 | .[E,G,E]2 B,,2 [E,G,]2 B,,2 | %16
 [F,A,D]2 z z/[K:treble] G/ A,2[K:bass] B,,2 | E,2 B,,2 G,,2 E,,2 | A,,2 [E,A,C]2 A,,2 [E,A,C]2 | %19
 z2 G,2 [G,B,E]2 [G,B,E]2 | z2 C2 z4 | D6 z2 | [E,,E,]2 B,,2 [E,G,E]2 B,,2 | %23
 .[E,G,E]2 B,,2 [E,G,]2 B,,2 | [F,A,D]2 z z/[K:treble] G/ A,2[K:bass] =B,,2 | C,2 B,,2 A,,2 G,,2 | %26
 F,,2 B,,A,, [G,,G,]2 [C,C][B,,B,] | [A,,A,]2[K:treble] [A,=B,F]2 [G,_B,E]2[K:bass] [=B,,A,]2 | %28
 B,,2 G,,A,, B,,2 B,,2 | E,2 B,,2 E,,2 z2 |] %30
V:4
 x8 | A,2 z2 z4 | x8 | x8 | x8 | z2 .D2 z4 | x8 | x8 | x8 | x8 | x8 | x8 | x8 | x8 | x8 | %15
 z B,CD EFGA | x8 | G,2 z2 z4 | x8 | z2 B,2 B2 B2 | x8 | z2 A,2 z =B[Cc][Dd] | x8 | z B,CD EFGA | %24
 x8 | G,2 D2 C2 B,2 | z2 .[B,G]2 z2 E2 | x8 | x8 | G,2 z2 z4 |] %30
V:5
 x8 | z2 F,2 z4 | x8 | z2 A,,2 [B,,B,]4 | x8 | x8 | x8 | z2 B,,2[K:treble][K:bass] z4 | x8 | %9
 z2 B,,2[K:treble][K:bass] z4 | x8 | x8 | x8 | x8 | x8 | x8 | z2 B,,2[K:treble] z4[K:bass] | x8 | %18
 x8 | G,,8 | [F,CE]2 [F,E]->[F,B,E] [F,CE]2 [F,=A,E]2 | B,2 A,,2 z =B, [F,,F,]2 | x8 | x8 | %24
 z2 B,,2[K:treble] z4[K:bass] | x8 | x8 | x2[K:treble] x4[K:bass] x2 | x8 | x8 |] %30
V:6
 x8 | B,,4 B,,4 | x8 | x8 | x8 | x8 | x8 | x3[K:treble] x[K:bass] x4 | x8 | %9
 x3[K:treble] x[K:bass] x4 | x8 | x8 | x8 | x8 | x8 | x8 | x7/2[K:treble] x5/2[K:bass] x2 | x8 | %18
 x8 | x8 | x8 | z4 G,,2 z2 | x8 | x8 | x7/2[K:treble] x5/2[K:bass] x2 | x8 | x8 | %27
 x2[K:treble] x4[K:bass] x2 | x8 | x8 |] %30
V:7
 x8 | x8 | x8 | x8 | x8 | x8 | x8 | x8 | x8 | x8 | x8 | x8 | x8 | x8 | x8 | x8 | x8 | x8 | x8 | %19
 x8 | x8 | z4 G,2 z2 | x8 | x8 | x8 | x8 | x8 | x8 | x8 | x8 |] %30

